svg/fluentui-system-icons/ic_fluent_heart_broken_16_filled.svg

<svg width="16" height="16" viewBox="0 0 16 16" fill="none" xmlns="http://www.w3.org/2000/svg">
<path d="M7.35443 3.77486C6.07544 2.67839 4.15183 2.73017 2.94588 3.93611C1.67969 5.20231 1.68587 7.25966 2.95756 8.53136L7.66505 13.2389C7.86031 13.4341 8.1769 13.4341 8.37216 13.2389L13.0552 8.55858C14.3184 7.28827 14.3144 5.23668 13.0425 3.96476C11.7686 2.69079 9.71024 2.68461 8.44178 3.95306L8.41381 3.98109L7.16023 5.90324L9.32249 7.72819C9.42943 7.81845 9.49365 7.94939 9.49955 8.0892C9.50546 8.22901 9.4525 8.36489 9.35355 8.46384L7.85355 9.96385C7.65829 10.1591 7.34171 10.1591 7.14645 9.96385C6.95118 9.76859 6.95118 9.45201 7.14645 9.25674L8.26172 8.14146L6.17751 6.38238C5.98462 6.21959 5.94332 5.93856 6.0812 5.72715L7.35443 3.77486Z" fill="#212121"/>
</svg>

<svg xmlns="http://www.w3.org/2000/svg" width="16" height="16"><path d="M7.354 3.775a3.248 3.248 0 0 0-4.408.161 3.25 3.25 0 0 0 .012 4.595l4.707 4.708a.5.5 0 0 0 .707 0l4.683-4.68a3.25 3.25 0 0 0-.012-4.594 3.252 3.252 0 0 0-4.601-.012l-.028.028L7.16 5.903l2.162 1.825a.5.5 0 0 1 .032.736l-1.5 1.5a.5.5 0 0 1-.708-.707L8.262 8.14 6.178 6.382a.5.5 0 0 1-.097-.655l1.273-1.952Z"/></svg>
